lib/svgs/xiaomi.svg

<?xml version="1.0" encoding="UTF-8"?>
<svg width="16px" height="16px" viewBox="0 0 16 16" version="1.1" xmlns="http://www.w3.org/2000/svg" xmlns:xlink="http://www.w3.org/1999/xlink">
    <!-- Generator: sketchtool 51.3 (57544) - http://www.bohemiancoding.com/sketch -->
    <title>brand/xiaomi</title>
    <desc>Created with sketchtool.</desc>
    <defs></defs>
    <g id="Icons" stroke="none" stroke-width="1" fill="none" fill-rule="evenodd">
        <g id="Web" transform="translate(-339.000000, -1038.000000)" fill="#000000">
            <g id="brand/xiaomi" transform="translate(339.000000, 1038.000000)">
                <path d="M-8.8817842e-16,3.06029856 L0.21872,3.06029856 L9,3.06029856 C9.90624,3.06029856 10.62496,3.42178151 11.12496,4.14459318 C11.37504,4.47600395 11.5,4.86755906 11.5,5.25911418 L11.5,5.74104003 L11.5,12.8192585 C11.5,13 11.5,13 11.31248,13 L9.24992,13 C9.12496,13 9.09376,12.9699278 9.09376,12.8494849 L9.09376,5.83141077 C9.09376,5.53022639 8.93744,5.37955709 8.65632,5.37955709 L2.59376,5.37955709 C2.43744,5.37955709 2.43744,5.43985565 2.43744,5.56029856 L2.43744,12.6988156 C2.43744,13 2.43744,13 2.09376,13 L0.15632,13 L-8.8817842e-16,13 L-8.8817842e-16,3.06029856 L-8.8817842e-16,3.06029856 M6.93744,13 L4.56256,13 L4.56256,12.8192585 L4.56256,7.12651903 C4.56256,6.97600395 4.59376,6.94577756 4.71872,6.94577756 L6.81248,6.94577756 C6.90624,6.94577756 6.93744,6.97600395 6.93744,7.09644686 L6.93744,12.8795571 L6.93744,13 L6.93744,13 M16,13 L15.12496,13 L13.71872,13 L13.56256,13 L13.56256,12.7891864 L13.56256,3.18074147 C13.56256,3.12059713 13.5312,3.06029856 13.5312,3 L16,3 L16,13 L16,13" id="Shape"></path>
            </g>
        </g>
    </g>
</svg>

<svg xmlns="http://www.w3.org/2000/svg" viewBox="0 0 16 16">
    <path d="M0 3.06h9c.906 0 1.625.362 2.125 1.085.25.331.375.723.375 1.114V12.82c0 .181 0 .181-.188.181H9.25c-.125 0-.156-.03-.156-.15V5.83c0-.3-.157-.451-.438-.451H2.594c-.157 0-.157.06-.157.18V12.7c0 .301 0 .301-.343.301H0V3.06M6.937 13H4.563V7.127c0-.151.03-.181.156-.181h2.093c.094 0 .125.03.125.15V13M16 13h-2.437V3.18c0-.06-.032-.12-.032-.18H16v10"/>
</svg>
